;Sliced by ideaMaker 4.2.3.5600, 2022-03-04 16:00:43 UTC-0600
;Dimension: 365.000 240.000 240.000 0.400 0.400
;Plate Shape: 0
;Origin Center: 0
;Extruder Offset #1: 0.000 0.000
;Filament Diameter #1: 1.750
;Filament Diameter #2: 1.750
;Filament Compensation #1: 96.00
;Filament Compensation #2: 96.00
;Filament Density #1: 1240.00
;Filament Density #2: 1240.00
;Filament Type #1: PLA
;Filament Type #2: PLA
;Filament Name #1: [Raise3D] PLA 1.75mm
;Filament Name #2: [Raise3D] PLA 1.75mm
;Firmware: RepRapFirmware
;Bounding Box: 159.399 246.289 91.360 148.638 0.000 1.300
;Model Gap: 0.000
M221 T1 S96.00
M140 S55.00
M104 T1 S205.00
M109 T1 S205.00
T1
M190 S55.00
M572 D0 S0.09
M572 D1 S0.09
G21
G90
M82
M107
G28
G1 Z0 F500
G92 E0
G1 Z0.2 F400
G1 X60 Y-2 F800
G1 X140 Y-2 E12 F200
G1 Z5 E15 F200
G92 E0
G1 F9000.0
M117 Printing...
M1001
;TOTAL_NUM: 2
;PRINTING_TIME: 0
;REMAINING_TIME: 1338
;LAYER:0
;Z:0.300
;HEIGHT:0.300
M106 S0
M140 S55
;PRINTING: NON-OBJECT
;PRINTING_ID: -1
G1 F2400 E-0.5000
G0 F9000 X161.806 Y100.778
G0 F900 Z0.300
;TYPE:SKIRT
;WIDTH:0.700
G1 F1500 E0.0000
G1 F900 X162.295 Y100.073 E0.0749
G1 X162.886 Y99.442 E0.1504
G1 X163.229 Y99.142 E0.1902
G1 X163.597 Y98.860 E0.2307
G1 X164.424 Y98.386 E0.3139
G1 X165.005 Y98.132 E0.3692
G1 X165.879 Y97.890 E0.4484
G1 X166.624 Y97.776 E0.5142
G1 X167.149 Y97.750 E0.5601
G1 X179.578 Y97.750 E1.6453
G1 X179.756 Y96.945 E1.7172
G1 X179.958 Y96.325 E1.7742
G1 X180.218 Y95.713 E1.8322
G1 X180.555 Y95.084 E1.8945
G1 X181.030 Y94.369 E1.9695
G1 X181.438 Y93.878 E2.0252
G1 X181.968 Y93.345 E2.0908
G1 X182.514 Y92.893 E2.1527
G1 X182.956 Y92.589 E2.1996
G1 X183.460 Y92.289 E2.2508
G1 X184.313 Y91.885 E2.3332
G1 X185.041 Y91.641 E2.4002
G1 X185.546 Y91.519 E2.4456
G1 X186.021 Y91.434 E2.4877
G1 X186.861 Y91.360 E2.5613
G1 X187.509 Y91.366 E2.6179
G1 X188.235 Y91.436 E2.6816
G1 X188.750 Y91.530 E2.7273
G1 X189.520 Y91.743 E2.7970
G1 X190.114 Y91.967 E2.8525
G1 X190.700 Y92.243 E2.9090
G1 X191.424 Y92.682 E2.9829
G1 X191.881 Y93.019 E3.0325
G1 X192.299 Y93.371 E3.0802
G1 X192.591 Y93.656 E3.1158
G1 X192.963 Y94.072 E3.1646
G1 X193.361 Y94.587 E3.2214
G1 X193.753 Y95.194 E3.2845
G1 X194.075 Y95.820 E3.3459
G1 X194.350 Y96.508 E3.4106
G1 X194.482 Y96.930 E3.4492
G1 X194.643 Y97.617 E3.5108
G1 X194.700 Y98.009 E3.5454
G1 X195.426 Y98.271 E3.6128
G1 X196.017 Y98.559 E3.6702
G1 X196.665 Y98.985 E3.7379
G1 X197.157 Y99.382 E3.7931
G1 X197.808 Y100.081 E3.8765
G1 X198.146 Y100.534 E3.9259
G1 X198.572 Y101.290 E4.0016
G1 X198.855 Y101.968 E4.0658
G1 X199.077 Y102.816 E4.1423
G1 X199.180 Y103.555 E4.2074
G1 X199.199 Y104.000 E4.2463
G1 X199.199 Y112.459 E4.9849
G1 X199.940 Y112.619 E5.0510
G1 X200.561 Y112.815 E5.1079
G1 X201.236 Y113.099 E5.1718
G1 X201.601 Y113.290 E5.2078
G1 X201.602 Y103.972 E6.0213
G1 X201.709 Y102.893 E6.1160
G1 X201.919 Y102.047 E6.1921
G1 X202.215 Y101.317 E6.2609
G1 X202.474 Y100.831 E6.3090
G1 X202.803 Y100.322 E6.3619
G1 X203.075 Y99.975 E6.4004
G1 X203.542 Y99.485 E6.4595
G1 X203.939 Y99.136 E6.5056
G1 X204.471 Y98.749 E6.5631
G1 X205.196 Y98.351 E6.6353
G1 X205.718 Y98.128 E6.6848
G1 X206.587 Y97.889 E6.7635
G1 X207.311 Y97.777 E6.8275
G1 X207.606 Y97.757 E6.8533
G1 X220.279 Y97.750 E7.9597
G1 X220.441 Y97.009 E8.0260
G1 X220.658 Y96.330 E8.0882
G1 X220.914 Y95.724 E8.1456
G1 X221.236 Y95.115 E8.2058
G1 X221.549 Y94.620 E8.2569
G1 X221.927 Y94.124 E8.3114
G1 X222.390 Y93.614 E8.3715
G1 X222.956 Y93.097 E8.4384
G1 X223.476 Y92.706 E8.4952
G1 X223.850 Y92.465 E8.5341
G1 X224.267 Y92.232 E8.5758
G1 X224.791 Y91.981 E8.6265
G1 X225.417 Y91.741 E8.6851
G1 X226.181 Y91.534 E8.7542
G1 X226.784 Y91.426 E8.8076
G1 X227.559 Y91.360 E8.8756
G1 X228.145 Y91.363 E8.9267
G1 X228.937 Y91.436 E8.9962
G1 X229.452 Y91.530 E9.0419
G1 X230.221 Y91.742 E9.1115
G1 X230.771 Y91.948 E9.1628
G1 X231.413 Y92.249 E9.2247
G1 X232.174 Y92.712 E9.3025
G1 X232.726 Y93.130 E9.3629
G1 X233.267 Y93.628 E9.4271
G1 X233.713 Y94.123 E9.4853
G1 X234.172 Y94.737 E9.5522
G1 X234.525 Y95.319 E9.6116
G1 X234.830 Y95.940 E9.6720
G1 X235.079 Y96.585 E9.7324
G1 X235.265 Y97.243 E9.7921
G1 X235.403 Y98.008 E9.8600
G1 X235.998 Y98.217 E9.9150
G1 X236.538 Y98.460 E9.9667
G1 X237.360 Y98.980 E10.0517
G1 X237.839 Y99.363 E10.1052
G1 X238.179 Y99.704 E10.1473
G1 X238.509 Y100.080 E10.1909
G1 X238.845 Y100.531 E10.2400
G1 X239.270 Y101.286 E10.3157
G1 X239.556 Y101.966 E10.3801
G1 X239.776 Y102.801 E10.4555
G1 X239.875 Y103.474 E10.5149
G1 X239.901 Y104.000 E10.5608
G1 X239.901 Y112.459 E11.2994
G1 X240.706 Y112.637 E11.3714
G1 X241.265 Y112.816 E11.4226
G1 X241.993 Y113.125 E11.4917
G1 X242.536 Y113.415 E11.5454
G1 X242.966 Y113.684 E11.5897
G1 X243.525 Y114.106 E11.6508
G1 X244.035 Y114.567 E11.7109
G1 X244.466 Y115.031 E11.7661
G1 X245.064 Y115.840 E11.8540
G1 X245.394 Y116.402 E11.9109
G1 X245.765 Y117.191 E11.9870
G1 X245.992 Y117.860 E12.0487
G1 X246.133 Y118.431 E12.1000
G1 X246.234 Y119.028 E12.1529
G1 X246.289 Y119.679 E12.2099
G1 X246.288 Y120.324 E12.2663
G1 X246.215 Y121.116 E12.3357
G1 X246.107 Y121.691 E12.3868
G1 X245.908 Y122.401 E12.4511
G1 X245.664 Y123.044 E12.5112
G1 X245.416 Y123.568 E12.5618
G1 X245.075 Y124.149 E12.6206
G1 X244.669 Y124.721 E12.6819
G1 X244.214 Y125.250 E12.7428
G1 X243.726 Y125.724 E12.8022
G1 X243.230 Y126.127 E12.8580
G1 X242.609 Y126.544 E12.9233
G1 X242.002 Y126.875 E12.9837
G1 X241.368 Y127.150 E13.0440
G1 X240.721 Y127.363 E13.1035
G1 X240.095 Y127.512 E13.1596
G1 X239.901 Y127.543 E13.1768
G1 X239.900 Y136.039 E13.9186
G1 X239.865 Y136.622 E13.9696
G1 X239.752 Y137.317 E14.0310
G1 X239.630 Y137.794 E14.0740
G1 X239.450 Y138.321 E14.1226
G1 X239.108 Y139.026 E14.1910
G1 X238.742 Y139.617 E14.2517
G1 X238.137 Y140.340 E14.3340
G1 X237.669 Y140.783 E14.3903
G1 X237.057 Y141.230 E14.4565
G1 X236.482 Y141.569 E14.5148
G1 X235.709 Y141.892 E14.5879
G1 X235.394 Y141.985 E14.6166
G1 X235.359 Y142.270 E14.6416
G1 X235.218 Y142.927 E14.7003
G1 X235.006 Y143.612 E14.7629
G1 X234.695 Y144.344 E14.8324
G1 X234.385 Y144.915 E14.8891
G1 X233.926 Y145.609 E14.9617
G1 X233.673 Y145.926 E14.9971
G1 X233.297 Y146.341 E15.0460
G1 X232.728 Y146.867 E15.1137
G1 X231.939 Y147.445 E15.1991
G1 X231.295 Y147.816 E15.2640
G1 X230.964 Y147.974 E15.2960
G1 X230.248 Y148.252 E15.3630
G1 X229.438 Y148.471 E15.4363
G1 X228.793 Y148.583 E15.4935
G1 X228.142 Y148.638 E15.5505
G1 X227.497 Y148.637 E15.6068
G1 X226.705 Y148.564 E15.6763
G1 X226.190 Y148.470 E15.7220
G1 X225.426 Y148.259 E15.7912
G1 X224.783 Y148.016 E15.8512
G1 X224.242 Y147.759 E15.9035
G1 X223.622 Y147.388 E15.9665
G1 X223.014 Y146.946 E16.0322
G1 X222.667 Y146.653 E16.0718
G1 X222.377 Y146.374 E16.1070
G1 X221.932 Y145.881 E16.1649
G1 X221.523 Y145.343 E16.2239
G1 X221.302 Y145.005 E16.2592
G1 X221.109 Y144.669 E16.2930
G1 X220.836 Y144.116 E16.3469
G1 X220.589 Y143.490 E16.4056
G1 X220.471 Y143.116 E16.4399
G1 X220.312 Y142.461 E16.4987
G1 X220.281 Y142.249 E16.5174
G1 X207.482 Y142.235 E17.6349
G1 X207.162 Y142.206 E17.6629
G1 X206.603 Y142.115 E17.7124
G1 X206.035 Y141.971 E17.7635
G1 X205.267 Y141.684 E17.8351
G1 X204.459 Y141.240 E17.9156
G1 X204.080 Y140.974 E17.9560
G1 X203.584 Y140.563 E18.0123
G1 X203.072 Y140.014 E18.0778
G1 X202.718 Y139.562 E18.1280
G1 X202.232 Y138.716 E18.2131
G1 X202.016 Y138.234 E18.2593
G1 X201.724 Y137.188 E18.3541
G1 X201.627 Y136.525 E18.4126
G1 X201.601 Y136.000 E18.4585
G1 X201.601 Y126.719 E19.2688
G1 X201.071 Y126.982 E19.3204
G1 X200.364 Y127.258 E19.3867
G1 X199.709 Y127.444 E19.4461
G1 X199.199 Y127.545 E19.4915
G1 X199.193 Y136.127 E20.2408
G1 X199.101 Y137.053 E20.3220
G1 X198.938 Y137.781 E20.3872
G1 X198.844 Y138.066 E20.4134
G1 X198.612 Y138.625 E20.4662
G1 X198.366 Y139.100 E20.5129
G1 X197.991 Y139.690 E20.5740
G1 X197.512 Y140.259 E20.6389
G1 X197.104 Y140.665 E20.6892
G1 X196.673 Y141.010 E20.7374
G1 X196.250 Y141.297 E20.7820
G1 X195.693 Y141.612 E20.8379
G1 X195.007 Y141.892 E20.9025
G1 X194.689 Y141.986 E20.9315
G1 X194.645 Y142.338 E20.9625
G1 X194.482 Y143.056 E21.0267
G1 X194.282 Y143.670 E21.0831
G1 X194.026 Y144.276 E21.1406
G1 X193.704 Y144.885 E21.2007
G1 X193.391 Y145.378 E21.2517
G1 X193.017 Y145.870 E21.3056
G1 X192.533 Y146.403 E21.3685
G1 X191.803 Y147.046 E21.4534
G1 X191.232 Y147.449 E21.5145
G1 X190.560 Y147.831 E21.5819
G1 X189.948 Y148.108 E21.6406
G1 X189.637 Y148.223 E21.6695
G1 X188.688 Y148.482 E21.7554
G1 X188.151 Y148.575 E21.8030
G1 X187.440 Y148.638 E21.8653
G1 X186.795 Y148.637 E21.9216
G1 X186.003 Y148.564 E21.9911
G1 X185.428 Y148.456 E22.0422
G1 X184.785 Y148.279 E22.1004
G1 X184.178 Y148.056 E22.1569
G1 X183.530 Y147.753 E22.2193
G1 X182.814 Y147.318 E22.2925
G1 X182.355 Y146.979 E22.3423
G1 X181.968 Y146.654 E22.3864
G1 X181.395 Y146.075 E22.4575
G1 X181.030 Y145.631 E22.5077
G1 X180.822 Y145.344 E22.5386
G1 X180.453 Y144.752 E22.5995
G1 X180.258 Y144.379 E22.6363
G1 X179.887 Y143.488 E22.7206
G1 X179.681 Y142.790 E22.7841
G1 X179.578 Y142.250 E22.8321
G1 X167.149 Y142.250 E23.9172
G1 X166.460 Y142.206 E23.9775
G1 X165.842 Y142.103 E24.0322
G1 X165.401 Y141.992 E24.0719
G1 X164.771 Y141.775 E24.1301
G1 X164.376 Y141.595 E24.1680
G1 X163.810 Y141.273 E24.2249
G1 X163.383 Y140.979 E24.2701
G1 X162.947 Y140.622 E24.3193
G1 X162.337 Y139.973 E24.3971
G1 X162.009 Y139.552 E24.4437
G1 X161.729 Y139.095 E24.4905
G1 X161.519 Y138.694 E24.5300
G1 X161.281 Y138.140 E24.5826
G1 X161.041 Y137.279 E24.6607
G1 X160.925 Y136.521 E24.7276
G1 X160.899 Y136.000 E24.7732
G1 X160.899 Y126.669 E25.5878
G1 X160.413 Y126.095 E25.6535
G1 X160.065 Y125.542 E25.7105
G1 X159.823 Y125.057 E25.7579
G1 X159.605 Y124.446 E25.8145
G1 X159.461 Y123.752 E25.8764
G1 X159.399 Y122.999 E25.9424
G1 X159.400 Y116.986 E26.4673
G1 X159.496 Y116.047 E26.5497
G1 X159.723 Y115.199 E26.6264
G1 X160.088 Y114.416 E26.7018
G1 X160.460 Y113.842 E26.7615
G1 X160.899 Y113.359 E26.8185
G1 X160.902 Y103.882 E27.6459
G1 X160.935 Y103.406 E27.6876
G1 X160.983 Y103.030 E27.7207
G1 X161.143 Y102.295 E27.7864
G1 X161.287 Y101.851 E27.8271
G1 X161.572 Y101.198 E27.8893
G1 X161.806 Y100.778 E27.9313
G1 F2400 E27.4313
G0 F9000 X162.381 Y101.177
G1 F1500 E27.9313
G1 F900 X162.870 Y100.472 E28.0062
G1 X163.347 Y99.968 E28.0668
G1 X163.655 Y99.698 E28.1026
G1 X164.023 Y99.416 E28.1430
G1 X164.712 Y99.024 E28.2122
G1 X165.192 Y98.807 E28.2582
G1 X166.066 Y98.565 E28.3374
G1 X166.660 Y98.475 E28.3899
G1 X167.149 Y98.450 E28.4326
G1 X180.196 Y98.450 E29.5717
G1 X180.276 Y97.815 E29.6276
G1 X180.423 Y97.158 E29.6864
G1 X180.602 Y96.599 E29.7376
G1 X180.862 Y95.987 E29.7957
G1 X181.140 Y95.469 E29.8470
G1 X181.571 Y94.814 E29.9155
G1 X181.936 Y94.370 E29.9656
G1 X182.418 Y93.882 E30.0255
G1 X182.911 Y93.469 E30.0817
G1 X183.314 Y93.191 E30.1244
G1 X183.818 Y92.891 E30.1756
G1 X184.538 Y92.548 E30.2453
G1 X185.208 Y92.321 E30.3070
G1 X185.669 Y92.208 E30.3485
G1 X186.144 Y92.123 E30.3906
G1 X186.857 Y92.060 E30.4531
G1 X187.444 Y92.063 E30.5043
G1 X188.109 Y92.125 E30.5626
G1 X188.624 Y92.219 E30.6084
G1 X189.273 Y92.398 E30.6671
G1 X189.867 Y92.622 E30.7226
G1 X190.339 Y92.843 E30.7681
G1 X191.010 Y93.247 E30.8364
G1 X191.432 Y93.556 E30.8821
G1 X191.813 Y93.875 E30.9255
G1 X192.071 Y94.124 E30.9568
G1 X192.411 Y94.502 E31.0012
G1 X192.773 Y94.967 E31.0526
G1 X193.165 Y95.574 E31.1157
G1 X193.451 Y96.137 E31.1709
G1 X193.683 Y96.720 E31.2256
G1 X193.801 Y97.092 E31.2597
G1 X193.950 Y97.718 E31.3159
G1 X194.030 Y98.269 E31.3645
G1 X194.045 Y98.570 E31.3908
G1 X194.402 Y98.646 E31.4227
G1 X195.125 Y98.903 E31.4897
G1 X195.635 Y99.146 E31.5390
G1 X196.225 Y99.530 E31.6005
G1 X196.717 Y99.927 E31.6557
G1 X197.247 Y100.500 E31.7238
G1 X197.585 Y100.953 E31.7732
G1 X197.959 Y101.629 E31.8406
G1 X198.179 Y102.149 E31.8899
G1 X198.384 Y102.917 E31.9593
G1 X198.481 Y103.585 E32.0182
G1 X198.499 Y104.000 E32.0545
G1 X198.499 Y113.077 E32.8470
G1 X199.072 Y113.146 E32.8974
G1 X199.729 Y113.287 E32.9560
G1 X200.350 Y113.483 E33.0129
G1 X200.962 Y113.743 E33.0710
G1 X201.466 Y114.011 E33.1208
G1 X201.769 Y114.198 E33.1519
G1 X202.301 Y113.631 E33.2198
G1 X202.302 Y103.972 E34.0631
G1 X202.390 Y103.056 E34.1434
G1 X202.569 Y102.307 E34.2106
G1 X202.835 Y101.643 E34.2731
G1 X203.062 Y101.211 E34.3157
G1 X203.391 Y100.702 E34.3686
G1 X203.582 Y100.458 E34.3957
G1 X204.049 Y99.968 E34.4548
G1 X204.357 Y99.698 E34.4905
G1 X204.810 Y99.361 E34.5398
G1 X205.471 Y98.995 E34.6058
G1 X205.993 Y98.772 E34.6554
G1 X206.768 Y98.565 E34.7254
G1 X207.362 Y98.475 E34.7778
G1 X207.606 Y98.457 E34.7992
G1 X220.898 Y98.450 E35.9597
G1 X220.967 Y97.877 E36.0101
G1 X221.108 Y97.220 E36.0688
G1 X221.304 Y96.600 E36.1255
G1 X221.534 Y96.049 E36.1777
G1 X221.829 Y95.487 E36.2331
G1 X222.108 Y95.042 E36.2789
G1 X222.448 Y94.592 E36.3282
G1 X222.864 Y94.129 E36.3825
G1 X223.379 Y93.655 E36.4436
G1 X223.857 Y93.293 E36.4960
G1 X224.191 Y93.076 E36.5307
G1 X224.608 Y92.843 E36.5725
G1 X225.091 Y92.614 E36.6191
G1 X225.603 Y92.416 E36.6671
G1 X226.308 Y92.222 E36.7309
G1 X226.846 Y92.123 E36.7787
G1 X227.559 Y92.060 E36.8411
G1 X228.083 Y92.060 E36.8869
G1 X228.811 Y92.125 E36.9507
G1 X229.326 Y92.219 E36.9964
G1 X229.975 Y92.398 E37.0552
G1 X230.525 Y92.604 E37.1065
G1 X231.049 Y92.847 E37.1569
G1 X231.810 Y93.310 E37.2347
G1 X232.264 Y93.656 E37.2845
G1 X232.558 Y93.914 E37.3187
G1 X232.778 Y94.129 E37.3455
G1 X233.154 Y94.544 E37.3944
G1 X233.575 Y95.103 E37.4555
G1 X233.898 Y95.630 E37.5095
G1 X234.178 Y96.194 E37.5644
G1 X234.406 Y96.779 E37.6193
G1 X234.578 Y97.375 E37.6734
G1 X234.699 Y98.006 E37.7295
G1 X234.757 Y98.572 E37.7792
G1 X235.104 Y98.646 E37.8102
G1 X235.766 Y98.878 E37.8714
G1 X236.248 Y99.097 E37.9176
G1 X236.927 Y99.530 E37.9879
G1 X237.343 Y99.857 E38.0341
G1 X237.683 Y100.198 E38.0762
G1 X237.953 Y100.506 E38.1119
G1 X238.235 Y100.874 E38.1524
G1 X238.660 Y101.629 E38.2281
G1 X238.880 Y102.148 E38.2773
G1 X239.084 Y102.907 E38.3459
G1 X239.176 Y103.510 E38.3992
G1 X239.201 Y104.000 E38.4420
G1 X239.201 Y113.077 E39.2345
G1 X239.836 Y113.157 E39.2904
G1 X240.493 Y113.304 E39.3491
G1 X241.052 Y113.483 E39.4004
G1 X241.664 Y113.743 E39.4584
G1 X242.168 Y114.011 E39.5083
G1 X242.547 Y114.245 E39.5472
G1 X243.058 Y114.627 E39.6029
G1 X243.522 Y115.043 E39.6573
G1 X243.953 Y115.507 E39.7126
G1 X244.462 Y116.197 E39.7874
G1 X244.762 Y116.703 E39.8388
G1 X245.103 Y117.419 E39.9080
G1 X245.313 Y118.029 E39.9644
G1 X245.443 Y118.550 E40.0112
G1 X245.536 Y119.087 E40.0588
G1 X245.591 Y119.738 E40.1159
G1 X245.591 Y120.262 E40.1616
G1 X245.526 Y120.990 E40.2254
G1 X245.432 Y121.505 E40.2711
G1 X245.253 Y122.154 E40.3299
G1 X245.029 Y122.748 E40.3853
G1 X244.811 Y123.216 E40.4304
G1 X244.503 Y123.746 E40.4839
G1 X244.136 Y124.267 E40.5396
G1 X243.725 Y124.749 E40.5949
G1 X243.281 Y125.183 E40.6491
G1 X242.837 Y125.548 E40.6993
G1 X242.272 Y125.931 E40.7589
G1 X241.721 Y126.234 E40.8138
G1 X241.146 Y126.486 E40.8686
G1 X240.559 Y126.682 E40.9226
G1 X239.933 Y126.831 E40.9788
G1 X239.382 Y126.911 E41.0274
G1 X239.201 Y126.921 E41.0432
G1 X239.200 Y136.039 E41.8393
G1 X239.166 Y136.578 E41.8864
G1 X239.073 Y137.146 E41.9367
G1 X238.965 Y137.575 E41.9753
G1 X238.820 Y138.015 E42.0158
G1 X238.478 Y138.720 E42.0842
G1 X238.204 Y139.170 E42.1302
G1 X237.650 Y139.837 E42.2059
G1 X237.256 Y140.218 E42.2537
G1 X236.644 Y140.665 E42.3199
G1 X236.130 Y140.964 E42.3718
G1 X235.444 Y141.244 E42.4365
G1 X234.748 Y141.437 E42.4996
G1 X234.675 Y142.123 E42.5598
G1 X234.534 Y142.780 E42.6185
G1 X234.338 Y143.401 E42.6753
G1 X234.078 Y144.013 E42.7334
G1 X233.800 Y144.531 E42.7847
